icons/direction-fill.svg

<svg xmlns="http://www.w3.org/2000/svg" width="24" height="24" fill="none"><g clip-path="url(#a)"><g><path fill="#121212" d="M9.00037 10C8.73516 10 8.4808 10.1054 8.29327 10.2929C8.10573 10.4804 8.00037 10.7348 8.00037 11V15H10.0004V12H13.0004V14.5L16.5004 11L13.0004 7.50001V10H9.00037ZM12.7074 1.39301L22.6074 11.293C22.7948 11.4805 22.9002 11.7348 22.9002 12C22.9002 12.2652 22.7948 12.5195 22.6074 12.707L12.7074 22.607C12.5198 22.7945 12.2655 22.8998 12.0004 22.8998C11.7352 22.8998 11.4809 22.7945 11.2934 22.607L1.39337 12.707C1.2059 12.5195 1.10059 12.2652 1.10059 12C1.10059 11.7348 1.2059 11.4805 1.39337 11.293L11.2934 1.39301C11.4809 1.20554 11.7352 1.10022 12.0004 1.10022C12.2655 1.10022 12.5198 1.20554 12.7074 1.39301Z"/></g></g><defs><clipPath id="a"><rect width="24" height="24" fill="white"/></clipPath></defs></svg>

<svg width="24" height="24" fill="none" xmlns="http://www.w3.org/2000/svg"><g clip-path="url(#a)"><path d="M9 10a1 1 0 0 0-1 1v4h2v-3h3v2.5l3.5-3.5L13 7.5V10H9Zm3.707-8.607 9.9 9.9a1 1 0 0 1 0 1.414l-9.9 9.9a1 1 0 0 1-1.414 0l-9.9-9.9a1 1 0 0 1 0-1.414l9.9-9.9a1 1 0 0 1 1.414 0Z" /></g><defs><clipPath id="a"><path fill="#fff" d="M0 0h24v24H0z"/></clipPath></defs></svg>
